src/public/cloudKey.svg

<svg width="26" height="20" viewBox="0 0 26 20" fill="none" xmlns="http://www.w3.org/2000/svg">
<path d="M9.81167 18.6667H6.41667C4.66667 18.6667 3.12667 18.0833 1.87833 16.835C0.63 15.61 0 14.105 0 12.3433C0 10.8267 0.455 9.47333 1.365 8.28333C2.25239 7.11992 3.52715 6.31284 4.95833 6.00833C5.44833 4.22333 6.41667 2.77667 7.875 1.66833C9.33333 0.583333 10.99 0 12.8333 0C15.1083 0 17.045 0.793333 18.62 2.38C20.2067 3.955 21 5.89167 21 8.16667C22.3417 8.31833 23.4617 8.90167 24.3367 9.91667C25.0833 10.7683 25.5033 11.7367 25.62 12.8333H23.2867C23.17 12.25 22.9133 11.7717 22.4817 11.3517C21.9217 10.78 21.2333 10.5 20.4167 10.5H18.6667V8.16667C18.6667 6.55667 18.0833 5.18 16.9633 4.03667C15.8317 2.91667 14.455 2.33333 12.8333 2.33333C11.2233 2.33333 9.84667 2.91667 8.70333 4.03667C7.58333 5.18 7 6.55667 7 8.16667H6.41667C5.285 8.16667 4.32833 8.56333 3.535 9.36833C2.73 10.1617 2.33333 11.1183 2.33333 12.25C2.33333 13.3817 2.73 14.35 3.535 15.1667C4.32833 15.9483 5.285 16.3333 6.41667 16.3333H9.33333C9.33333 17.1733 9.50833 17.955 9.81167 18.6667ZM25.6667 15.1667V17.5H23.3333V19.8333H21V17.5H18.4333C17.9667 18.9 16.6833 19.8333 15.1667 19.8333C13.1833 19.8333 11.6667 18.3167 11.6667 16.3333C11.6667 14.35 13.1833 12.8333 15.1667 12.8333C16.6833 12.8333 17.9667 13.7667 18.4333 15.1667H25.6667ZM16.3333 16.3333C16.3333 15.75 15.8667 15.1667 15.1667 15.1667C14.4667 15.1667 14 15.75 14 16.3333C14 16.9167 14.4667 17.5 15.1667 17.5C15.8667 17.5 16.3333 16.9167 16.3333 16.3333Z" fill="white"/>
</svg>

<svg xmlns="http://www.w3.org/2000/svg" width="26" height="20" fill="none" xmlns:v="https://vecta.io/nano"><path d="M9.812 18.667H6.417c-1.75 0-3.29-.583-4.538-1.832C.63 15.61 0 14.105 0 12.343c0-1.517.455-2.87 1.365-4.06a6.12 6.12 0 0 1 3.593-2.275c.49-1.785 1.458-3.232 2.917-4.34C9.333.583 10.99 0 12.833 0c2.275 0 4.212.793 5.787 2.38C20.207 3.955 21 5.892 21 8.167c1.342.152 2.462.735 3.337 1.75.747.852 1.167 1.82 1.283 2.917h-2.333a2.74 2.74 0 0 0-.805-1.482 2.77 2.77 0 0 0-2.065-.852h-1.75V8.167c0-1.61-.583-2.987-1.703-4.13a5.67 5.67 0 0 0-4.13-1.703c-1.61 0-2.987.583-4.13 1.703C7.583 5.18 7 6.557 7 8.167h-.583c-1.132 0-2.088.397-2.882 1.202-.805.793-1.202 1.75-1.202 2.882s.397 2.1 1.202 2.917a3.94 3.94 0 0 0 2.882 1.167h2.917c0 .84.175 1.622.478 2.333zm15.855-3.5V17.5h-2.333v2.333H21V17.5h-2.567c-.467 1.4-1.75 2.333-3.267 2.333-1.983 0-3.5-1.517-3.5-3.5s1.517-3.5 3.5-3.5c1.517 0 2.8.933 3.267 2.333h7.233zm-9.333 1.167a1.17 1.17 0 0 0-1.167-1.167A1.17 1.17 0 0 0 14 16.333a1.17 1.17 0 0 0 1.167 1.167 1.17 1.17 0 0 0 1.167-1.167z" fill="#fff"/></svg>
